Optical/If.svg

<?xml version="1.0" encoding="UTF-8"?>
<svg width="28px" height="48px" viewBox="0 0 28 48" version="1.1" xmlns="http://www.w3.org/2000/svg" xmlns:xlink="http://www.w3.org/1999/xlink">
    <!-- Generator: Sketch 52.3 (67297) - http://www.bohemiancoding.com/sketch -->
    <title>Optical/If</title>
    <desc>Created with Sketch.</desc>
    <g id="Optical/If" stroke="none" stroke-width="1" fill="none" fill-rule="evenodd">
        <path d="M28,25.0000178 C28,32.7314928 21.732095,39 14.00035,39 C6.26787,39 0,32.7314928 0,25.0000178 C0,17.2677965 6.26787,11 14.00035,11 C21.732095,11 28,17.2677965 28,25.0000178 Z M18.897935,14.930125 C17.72932,14.930125 16.61408,15.4368035 15.802465,16.2622215 C14.637315,17.46835 14.102235,19.2479965 13.743905,20.4759429 L12.554535,20.4604501 C12.47274,20.4604501 12.404805,20.531518 12.38608,20.5906465 L12.205165,21.2134143 C12.186475,21.2767358 12.225955,21.3590679 12.31258,21.3590679 L13.502685,21.3429 C13.502685,21.3429 11.90224,27.8668251 11.577895,29.1876928 C11.171755,30.8455644 10.51603,32.5337465 10.04955,33.1318893 C9.631615,33.6667107 9.35228,33.8320501 9.068815,33.8320501 C8.672335,33.8320501 8.4665,33.541418 8.35422,33.0636286 C8.277955,32.7174214 8.057525,32.2445002 7.566825,32.2445002 C7.0567,32.2445002 6.35803,32.8328001 6.35803,33.541418 C6.35803,34.5012608 7.934885,34.7173072 8.462335,34.7173072 C9.50061,34.7173072 10.84391,34.0445431 11.749115,32.9904287 C12.900405,31.6660431 13.539435,30.0074609 14.137585,27.6690787 L15.599395,21.3330216 L17.12984,21.3597431 C17.25388,21.3597431 17.30862,21.2710859 17.331545,21.2056324 L17.530485,20.6250788 C17.552675,20.5589502 17.51729,20.4759074 17.42097,20.4759074 L15.84065,20.4759074 C16.218405,19.131836 16.78537,17.1460217 17.85973,16.0525001 C17.954685,15.9560965 18.222925,15.7210395 18.467575,15.718943 C18.89804,15.7147145 19.01795,15.9645536 19.197465,16.3677573 C19.372115,16.7646359 19.342995,17.4465322 19.93495,17.4465322 C20.61906,17.4465322 21.13405,16.668943 21.13405,16.1313144 C21.133945,15.4009142 19.891165,14.930125 18.897935,14.930125 Z M17.391115,26.7550036 C16.738855,26.7711716 16.26478,27.3228715 16.23566,28.00125 C16.20724,28.6641002 16.61065,29.0420037 17.183145,29.0420037 C18.16045,29.0420037 18.339265,28.1426751 18.352425,27.827418 C18.385745,27.0548035 17.85546,26.7550036 17.391115,26.7550036 Z M20.79707,26.7550036 C20.144845,26.7711716 19.67007,27.3228715 19.64235,28.00125 C19.61323,28.6641002 20.016605,29.0420037 20.58917,29.0420037 C21.566475,29.0420037 21.74529,28.1426751 21.757785,27.827418 C21.7917,27.0548035 21.260785,26.7550036 20.79707,26.7550036 Z M24.203095,26.7550036 C23.55017,26.7711716 23.076095,27.3228715 23.04764,28.00125 C23.018555,28.6641002 23.42263,29.0420037 23.995125,29.0420037 C24.97243,29.0420037 25.151245,28.1426751 25.16444,27.827418 C25.197725,27.0548035 24.66681,26.7550036 24.203095,26.7550036 Z M10.49594,16.0954607 C9.801435,16.11305 9.28781,16.6999286 9.243465,17.4233285 C9.201185,18.1298144 9.62262,18.5337642 10.23463,18.5337642 C11.275005,18.5337642 11.48154,17.5746321 11.502365,17.2375571 C11.55154,16.4149463 10.992905,16.0954607 10.49594,16.0954607 Z M9.976785,26.2694678 C9.92824,26.2223143 9.83815,26.204725 9.76605,26.2793107 C9.76605,26.2793107 8.70352,27.4819215 8.34169,27.4819215 C8.178135,27.4819215 8.183,27.2785252 8.183,27.2461893 C8.183,27.0681287 8.28975,26.74445 8.345855,26.5910145 L8.799875,25.3827539 L9.89289,22.6974894 C10.11885,22.1605715 10.38919,21.4653144 10.38919,21.005825 C10.38919,20.4097787 9.945565,20.2655464 9.62605,20.2655464 C8.153845,20.2655464 6.57286,22.0142072 5.969845,22.7108857 C5.967745,22.7130177 5.96498,22.7172107 5.96498,22.7172107 C5.919935,22.7657856 5.890815,22.8558286 5.981605,22.9431 L6.25954,23.2119143 C6.31085,23.2604892 6.404405,23.2632964 6.462645,23.1999749 C6.462645,23.1999749 7.18627,22.3977606 7.451745,22.2007249 C7.521745,22.1458605 7.63539,22.0712392 7.70126,22.0712392 C7.79485,22.0712392 7.84126,22.213375 7.84126,22.2914786 C7.84126,22.5405715 7.59451,23.1351965 7.480165,23.4420321 L6.3469,26.3588357 C5.950455,27.3376892 5.765375,27.8563071 5.765375,28.297532 C5.765375,28.7964641 6.039145,29.1905355 6.719125,29.1905355 C8.293215,29.1912462 10.279675,26.7782428 10.279675,26.7782428 C10.356605,26.688875 10.31779,26.6009285 10.26998,26.5558714 L9.976785,26.2694678 Z" id="Cropped/If" fill="#00A7E4"></path>
    </g>
</svg>

<svg width="28" height="48" xmlns="http://www.w3.org/2000/svg"><path d="M28 25c0 7.731-6.268 14-14 14S0 32.731 0 25c0-7.732 6.268-14 14-14s14 6.268 14 14zm-9.102-10.07c-1.169 0-2.284.507-3.096 1.332-1.165 1.206-1.7 2.986-2.058 4.214l-1.19-.016c-.081 0-.15.072-.168.13l-.18.623c-.02.064.02.146.107.146l1.19-.016-1.925 7.845c-.406 1.658-1.062 3.346-1.528 3.944-.418.535-.698.7-.981.7-.397 0-.603-.29-.715-.768-.076-.347-.296-.82-.787-.82-.51 0-1.209.589-1.209 1.297 0 .96 1.577 1.176 2.104 1.176 1.039 0 2.382-.672 3.287-1.727 1.151-1.324 1.79-2.983 2.389-5.32l1.461-6.337 1.53.027c.125 0 .18-.089.203-.154l.198-.58c.023-.067-.013-.15-.109-.15h-1.58c.377-1.344.944-3.33 2.019-4.423.095-.097.363-.332.608-.334.43-.004.55.246.73.649.174.397.145 1.079.737 1.079.684 0 1.199-.778 1.199-1.316 0-.73-1.243-1.2-2.236-1.2zM17.39 26.755c-.652.016-1.126.568-1.155 1.246-.029.663.375 1.041.947 1.041.977 0 1.156-.9 1.17-1.215.033-.772-.498-1.072-.962-1.072zm3.406 0c-.652.016-1.127.568-1.155 1.246-.029.663.375 1.041.947 1.041.977 0 1.156-.9 1.169-1.215.034-.772-.497-1.072-.96-1.072zm3.406 0c-.653.016-1.127.568-1.155 1.246-.03.663.375 1.041.947 1.041.977 0 1.156-.9 1.17-1.215.033-.772-.498-1.072-.962-1.072zm-13.707-10.66c-.695.018-1.208.605-1.253 1.328-.042.707.38 1.11.992 1.11 1.04 0 1.247-.958 1.267-1.295.05-.823-.51-1.143-1.006-1.143zm-.52 10.174a.145.145 0 0 0-.21.01s-1.062 1.203-1.424 1.203c-.164 0-.159-.203-.159-.236 0-.178.107-.502.163-.655l.454-1.208 1.093-2.686c.226-.536.496-1.232.496-1.691 0-.596-.443-.74-.763-.74-1.472 0-3.053 1.748-3.656 2.445l-.005.006c-.045.049-.074.139.017.226l.278.269a.145.145 0 0 0 .203-.012s.723-.802.989-1c.07-.054.183-.129.25-.129.093 0 .14.142.14.22 0 .25-.247.844-.362 1.151l-1.133 2.917c-.397.979-.582 1.497-.582 1.939 0 .498.274.893.954.893 1.574 0 3.56-2.413 3.56-2.413.078-.09.039-.177-.009-.222l-.293-.287z" fill="#00A7E4" fill-rule="evenodd"/></svg>
